icon-themes/sifr_svg/cmd/lc_bold.svg

<svg viewBox="0 0 24 24" xmlns="http://www.w3.org/2000/svg"><path d="m4 2v20h4 6a6 6 0 0 0 6-6 6 6 0 0 0 -6-6h-6v-8zm4 12h6a2 2 0 0 1 2 2 2 2 0 0 1 -2 2h-6z" fill="#555753"/></svg>

<svg xmlns="http://www.w3.org/2000/svg" viewBox="0 0 24 24">
  <path
     style="fill:#555753"
     d="M 4 2 L 4 22 L 8 22 L 14 22 A 6 6 0 0 0 20 16 A 6 6 0 0 0 14 10 L 8 10 L 8 2 L 4 2 z M 8 14 L 14 14 A 2 2 0 0 1 16 16 A 2 2 0 0 1 14 18 L 8 18 L 8 14 z "
     />
</svg>
